svg/fluentui-system-icons/ic_fluent_skip_back_10_28_regular.svg

<svg width="28" height="28" viewBox="0 0 28 28" fill="none" xmlns="http://www.w3.org/2000/svg">
<path d="M2.74999 2.5C2.33578 2.5 2 2.83579 2 3.25V9.75C2 10.1642 2.33578 10.5 2.74999 10.5H9.25029C9.66449 10.5 10.0003 10.1642 10.0003 9.75C10.0003 9.33579 9.66449 9 9.25029 9H4.58959C6.2696 6.46873 9.65562 4.5 13.7501 4.5C17.9672 4.5 21.2915 6.49791 23.6172 10.1526C23.8396 10.5021 24.3031 10.6051 24.6526 10.3827C25.002 10.1603 25.105 9.69676 24.8827 9.3473C22.3113 5.30647 18.5329 3 13.7501 3C9.31645 3 5.5242 5.07273 3.49997 7.93666V3.25C3.49997 2.83579 3.16419 2.5 2.74999 2.5ZM10.9483 13.4753C10.8978 13.3464 10.8109 13.23 10.6905 13.1427C10.6825 13.1369 10.6744 13.1313 10.6662 13.1258C10.6483 13.1138 10.6297 13.1026 10.6107 13.0921C10.3796 12.9652 10.1033 12.9719 9.88207 13.0965C9.81657 13.1333 9.75588 13.1805 9.70262 13.2376C9.67466 13.2675 9.64911 13.2996 9.6263 13.3337C9.60916 13.3586 9.58758 13.3911 9.56151 13.4304C9.26613 13.8754 8.39393 15.1892 6.86457 16.1069C6.50939 16.32 6.39422 16.7807 6.60733 17.1359C6.82044 17.4911 7.28112 17.6062 7.6363 17.3931C8.39296 16.9391 9.01289 16.4054 9.50028 15.905V24.25C9.50028 24.6642 9.83606 25 10.2503 25C10.6645 25 11.0003 24.6642 11.0003 24.25V13.7665C11.0012 13.7205 10.998 13.6745 10.9906 13.6292C10.9819 13.5758 10.9676 13.5243 10.9483 13.4753ZM14.8541 14.9135C15.5302 13.7389 16.6486 13 18.2384 13C19.8283 13 20.9466 13.7389 21.6227 14.9135C22.2656 16.0304 22.4883 17.4978 22.4883 19C22.4883 20.5022 22.2656 21.9696 21.6227 23.0865C20.9466 24.2611 19.8283 25 18.2384 25C16.6486 25 15.5302 24.2611 14.8541 23.0865C14.2112 21.9696 13.9885 20.5022 13.9885 19C13.9885 17.4978 14.2112 16.0304 14.8541 14.9135ZM16.1541 15.6618C15.7032 16.4451 15.4885 17.6027 15.4885 19C15.4885 20.3973 15.7032 21.5549 16.1541 22.3382C16.5717 23.0637 17.2033 23.5 18.2384 23.5C19.2735 23.5 19.9051 23.0637 20.3227 22.3382C20.7736 21.5549 20.9884 20.3973 20.9884 19C20.9884 17.6027 20.7736 16.4451 20.3227 15.6618C19.9051 14.9363 19.2735 14.5 18.2384 14.5C17.2033 14.5 16.5717 14.9363 16.1541 15.6618Z" fill="#212121"/>
</svg>

<svg xmlns="http://www.w3.org/2000/svg" width="28" height="28"><path d="M2.75 2.5a.75.75 0 0 0-.75.75v6.5c0 .414.336.75.75.75h6.5a.75.75 0 0 0 0-1.5H4.59c1.68-2.531 5.066-4.5 9.16-4.5 4.217 0 7.541 1.998 9.867 5.653a.75.75 0 1 0 1.266-.806C22.31 5.307 18.533 3 13.75 3 9.316 3 5.524 5.073 3.5 7.937V3.25a.75.75 0 0 0-.75-.75Zm8.198 10.975a.746.746 0 0 0-.337-.383.75.75 0 0 0-.985.242 7.48 7.48 0 0 0-.064.096c-.296.445-1.168 1.76-2.697 2.677a.75.75 0 0 0 .771 1.286A9.292 9.292 0 0 0 9.5 15.905v8.345a.75.75 0 0 0 1.5 0V13.767a.76.76 0 0 0-.052-.292Zm3.906 1.439C15.53 13.739 16.65 13 18.238 13c1.59 0 2.709.739 3.385 1.914.643 1.116.865 2.584.865 4.086 0 1.502-.222 2.97-.865 4.087C20.947 24.26 19.828 25 18.238 25c-1.59 0-2.708-.739-3.384-1.913-.643-1.117-.865-2.585-.865-4.087 0-1.502.222-2.97.865-4.086Zm1.3.748c-.45.783-.665 1.94-.665 3.338 0 1.397.214 2.555.665 3.338.418.726 1.05 1.162 2.084 1.162 1.035 0 1.667-.436 2.085-1.162.45-.783.665-1.94.665-3.338 0-1.397-.214-2.555-.665-3.338-.418-.726-1.05-1.162-2.085-1.162s-1.666.436-2.084 1.162Z"/></svg>
